X:1
T:Psalm 1
T:A minor         Israel Holdroyd, 1724
T:Thomas Sternhold, 1547 Old Version  (Psalm 1)      86. 86. (C. M.)
T:Transcribed from The Spiritual Man's Companion, 1724
T:No Copyright.  Transcribed from Suffolk Harmony, 1786.
Z:No Copyright.  Transcribed from Suffolk Harmony, 1786.
%%score [ 1 2 3 4 ]
L:1/8
Q:1/4=80
M:2/2
K:C
V:1 treble nm="Tr." snm="Tr."
V:2 treble nm="C." snm="C."
V:3 treble-8 nm="T." snm="T."
V:4 bass nm="B." snm="B."
V:1
"_1. The man  is  blest  that  hath  not  lent  To wicked men his ear,   Nor  led  his  life  as  sinners  do,    Nor   sat   in   scorner's  chair:\n2. But in   the  law  of  God  the Lord  Doth set his whole delight,  And  in  the  same  doth exercise    Him–self  both day and night." A4 AB cd | %1
 e4 e2 dc | (B3 A) A4 || A2 GF E2 A2 | B4 c4 || c4 B2 A2 | ^G4 c2 dc | BA ^G6 || B2 A2 c/B/A dc | %9
 B4 A4 |] %10
V:2
 E4 E2 E2 | G4 G2 F2 | E4 E4 || E2 EF G2 A2 | G4 G4 || G4 G2 E2 | E4 DE F2 | F2 E6 || E2 E2 E2 F2 | %9
 E4 E4 |] %10
V:3
"_1. The man  is  blest  that  hath  not  lent  To wicked men his ear,   Nor  led  his  life  as  sinners  do,    Nor   sat   in   scorner's  chair:\n2. But in   the  law  of  God  the Lord  Doth set his whole delight,  And  in  the  same  doth exercise    Him–self  both day and night." A4 ed c2 | %1
 B4 cB A2 | ^G4 A4 || c2 c2 G2 c2 | d4 e4 || e4 d2 c2 | B4 A2 d2 | d2 B6 || ^G2 AB cB A2 | %9
 ^G4 A4 |] %10
V:4
"___________________________________________________________\nThis tune seems not to be in The Hymn Tune Index." A,4 A,^G, A,2 | %1
 E,4 D,2 D,2 | E,4 A,,4 || A,,B,, C,D, E,2 F,D, | G,4 C,4 || C,4 G,2 A,2 | E,4 F,E, D,2 | %7
 D,2 E,6 || E,D, C,B,, A,,2 D,2 | E,4 A,,4 |] %10

